Sources/FrostedUI/Resources/Icons.xcassets/checkmarkShield24.imageset/checkmark-shield-24.svg

<svg
  width="24"
  height="24"
  viewBox="0 0 24 24"
  fill="none"
  xmlns="http://www.w3.org/2000/svg"
  data-fui-icon="true"
>
  <path
    d="M8.75 12.75L11.25 15.25L16.25 9.75"
    stroke="currentColor"
    stroke-width="1.5"
    stroke-linecap="round"
    stroke-linejoin="round"
  />
  <path
    d="M10.8901 2.3538C9.22899 4.64422 6.20543 5.8873 4.50252 6.43534C3.77914 6.66813 3.25012 7.32797 3.25012 8.08789V9.12281C3.25012 14.7462 6.30393 20.4683 11.6607 22.1793C11.8043 22.2252 11.9193 22.25 12 22.25C12.0807 22.25 12.1956 22.2252 12.3392 22.1793C17.6961 20.4683 20.7501 14.7463 20.7501 9.12281V8.08793C20.7501 7.32799 20.2211 6.66814 19.4977 6.43534C17.7947 5.88731 14.771 4.64422 13.1099 2.3538C12.8488 1.99373 12.4448 1.75 12 1.75C11.5552 1.75 11.1512 1.99373 10.8901 2.3538Z"
    stroke="currentColor"
    stroke-width="1.5"
    stroke-linecap="round"
    stroke-linejoin="round"
  />
</svg>

<svg xmlns="http://www.w3.org/2000/svg" width="24" height="24" fill="none" data-fui-icon="true" viewBox="0 0 24 24"><path stroke="currentColor" stroke-linecap="round" stroke-linejoin="round" stroke-width="1.5" d="m8.75 12.75 2.5 2.5 5-5.5"/><path stroke="currentColor" stroke-linecap="round" stroke-linejoin="round" stroke-width="1.5" d="M10.89 2.354C9.23 4.644 6.205 5.887 4.503 6.435c-.724.233-1.253.893-1.253 1.653v1.035c0 5.623 3.054 11.345 8.41 13.056q.218.07.34.071.122-.001.34-.07c5.356-1.712 8.41-7.434 8.41-13.057V8.088c0-.76-.529-1.42-1.252-1.653-1.703-.548-4.727-1.79-6.388-4.081-.261-.36-.665-.604-1.11-.604s-.849.244-1.11.604"/></svg>
